X: 25932
T: Maureen's Return
R: jig
M: 6/8
K: Adorian
|:d|edc AGE|ABA EGE|GEA DED|GEG ABd|
edc AGE|ABA EGE|GEA DED|GEG A2:|
|:d|efg abc'|bc'b aga|bc'b age|dBd ged|
efg abc'|bc'b age|dBd ged|BAG A2:|

